X: 201
T: The Perthshire Hunt
R: reel
M: C|
L: 1/8
Z: 2011 John Chambers <jc:trillian.mit.edu>
B: Abraham Mackintosh "A Collection of Strathspeys, Reels, Jigs &c.", Newcastle, after 1797, p.20
F: http://imslp.info/files/imglnks/usimg/a/a8/IMSLP80796-PMLP164326-Abraham_Mackintosh_coll.pdf
K: A
V: 1
F | E2CE A,ECE | A,ECE FB,B,F | E2CE A,ECE ceBd cAA :|
e | c/B/A eA fAeA | c/B/A eA fBBd | c/B/A eA fAeA | EFAB cAAe |
y | c/B/A eA fAeA | c/B/A eA fBBd | ceAc dfBd | EFAB cAA |]
V: 2 clef=bass middle=d
z | A2A2 c2A2 | c2A2 d2d2 | c2A2 c2A2 | e2E2 a2A :|
z | a2[a2c'2] [a2d'2][a2c'2] | a2[a2c'2] d'2e'2 | a2[a2c'2] [a2d'2][a2c'2] |a2A2 a2A2 |
y | A2c2 d2c2 | A2c2 d2e2 | A2c2 B2d2 | e2E2 a2A |]

%%sep 2 1 500

